X: 16
T: Chenshi shang kuming ren shaoyou wo
%%abc-version 2.0
%%abcx-abcm2ps-target-version 5.9.1 (29 Sep 2008)
%%abc-creator hum2abc beta
%%abcx-conversion-date 2013/10/02 07:52:29
%%abc-edited-by Helmut Schaffrath
%%humdrum-veritas 2124126844
%%humdrum-veritas-data 3627300278
%%continueall 1
%%barnumbers 0
L: 1/8
M: 2/4
K: A
c'> c' c' e' [I:setbarnb 1]| 
a> a a c' | 
e> c A f | 
B4 | 
(3c'2 c'2 e'2 | 
a> a a c' | 
e> c A f | 
e4 |]  



